cached_logos/datica.svg

<?xml version="1.0" encoding="UTF-8"?>
<svg   viewBox="-6.300000000000011 -2.5400000000000063 327.6 132.08" version="1.1" xmlns="http://www.w3.org/2000/svg" xmlns:xlink="http://www.w3.org/1999/xlink">
    <!-- Generator: Sketch 50 (54983) - http://www.bohemiancoding.com/sketch -->
    <title>_datica-logo-deep</title>
    <desc>Created with Sketch.</desc>
    <defs></defs>
    <g id="Page-1" stroke="none" stroke-width="1" fill="none" fill-rule="evenodd">
        <path d="M0.598406019,51.1581127 L8.77662161,42.0203533 L37.3006418,76.0368299 L0.598406019,51.1581127 Z M8.77662161,96.3800168 L8.77662161,84.0407067 L52.6597297,90.1770123 L8.77662161,96.3800168 Z M45.0799201,124.393586 L36.8352149,115.255826 L73.5374507,90.3771092 L45.0799201,124.393586 Z M90.6917566,120.925239 L78.457678,119.657959 L89.1624968,76.5037227 L90.6917566,120.925239 Z M122.340786,87.7091502 L112.367352,94.9126394 L91.5561209,55.6936429 L122.340786,87.7091502 Z M123.670577,41.7535575 L121.077484,53.8260717 L79.4550214,38.6187057 L123.670577,41.7535575 Z M94.0162345,6.73659633 L100.133274,17.4751311 L59.0427272,34.0831755 L94.0162345,6.73659633 Z M48.6038666,0.666989736 L60.3060288,4.46883123 L40.8910779,44.4215164 L48.6038666,0.666989736 Z M10.7713083,26.5461915 L22.0080436,21.5437685 L34.2421222,64.2978105 L10.7713083,26.5461915 Z M0,71.2345038 L4.98671682,59.9623772 L42.6198064,83.5071149 L0,71.2345038 Z M21.7420853,111.654082 L17.9521806,99.9150624 L61.5693304,92.1779815 L21.7420853,111.654082 Z M64.8938083,127.061545 L54.1889895,120.925239 L81.5161977,85.841579 L64.8938083,127.061545 Z M107.247656,109.586414 L95.2130465,112.187674 L92.0880373,67.8328561 L107.247656,109.586414 Z M127.061545,68.166351 L119.814183,78.171197 L87.8991952,47.2895723 L127.061545,68.166351 Z M114.16257,24.1450284 L115.425872,36.4176396 L71.1438267,34.8835632 L114.16257,24.1450284 Z M75.1996897,0 L84.3087591,8.27067272 L50.3990847,36.8845324 L75.1996897,0 Z M30.1197696,8.27067272 L42.4203378,8.27067272 L36.2368089,52.2919953 L30.1197696,8.27067272 Z M152.473854,83.1848351 L152.473854,43.2009252 L166.890587,43.2009252 C178.604183,43.2009252 186.263073,51.1977072 186.263073,63.023934 C186.263073,74.8501609 178.660499,83.1848351 166.777957,83.1848351 L152.473854,83.1848351 Z M199.947707,83.8606195 C194.20354,83.8606195 190.374095,80.5380129 190.374095,75.5259453 C190.374095,72.8228077 191.556718,70.5701931 193.809332,69.1623089 C195.836685,67.9796862 198.539823,67.2475865 202.988737,66.6281175 L208.958166,65.8960177 L208.958166,65.1639179 C208.958166,60.9402655 207.32502,59.1381738 203.720837,59.1381738 C200.39823,59.1381738 198.427192,60.8839501 198.201931,64.093926 L191.275141,64.093926 C191.725664,58.0681818 196.456154,54.3513677 203.720837,54.3513677 C212.055511,54.3513677 215.772325,57.8992357 215.772325,66.0649638 L215.772325,74.4559533 C215.772325,78.2853982 216.053902,81.2137973 216.617056,83.1848351 L209.859212,83.1848351 C209.63395,81.7769509 209.465004,80.0874899 209.408689,78.3417136 C208.05712,81.7769509 204.509252,83.8606195 199.947707,83.8606195 Z M220.221239,59.9265889 L220.221239,55.0271521 L225.289622,55.0271521 L225.289622,47.9314159 L232.047466,45.2282784 L232.047466,55.0271521 L238.91794,55.0271521 L238.91794,59.9265889 L232.047466,59.9265889 L232.047466,73.3859614 C232.047466,76.4269912 233.342719,77.8348753 236.158488,77.8348753 C237.284795,77.8348753 238.016895,77.7222446 238.91794,77.4969831 L238.91794,83.1848351 C237.284795,83.5227273 236.045857,83.6916734 234.30008,83.6916734 C227.542237,83.6916734 225.289622,80.1438053 225.289622,74.4559533 L225.289622,59.9265889 L220.221239,59.9265889 Z M244.774739,50.3529767 L244.774739,43.3135559 L252.095736,43.3135559 L252.095736,50.3529767 L244.774739,50.3529767 Z M245.112631,83.1848351 L245.112631,55.0271521 L251.870475,55.0271521 L251.870475,83.1848351 L245.112631,83.1848351 Z M272.256637,83.8606195 C263.865648,83.8606195 258.459372,78.0601368 258.459372,69.1059936 C258.459372,59.9265889 263.753017,54.3513677 272.312953,54.3513677 C279.296058,54.3513677 283.857603,58.0681818 284.702333,64.4881335 L278.113435,65.5581255 C277.662912,61.7286806 275.466613,59.6450121 272.144006,59.6450121 C267.976669,59.6450121 265.386163,63.1365648 265.386163,68.9370475 C265.386163,75.019107 267.920354,78.5106597 272.256637,78.5106597 C275.635559,78.5106597 277.719228,76.4269912 278.338697,72.4849155 L284.702333,73.7801689 C283.688656,80.0311746 278.958166,83.8606195 272.256637,83.8606195 Z M298.330652,83.8606195 C292.586484,83.8606195 288.757039,80.5380129 288.757039,75.5259453 C288.757039,72.8228077 289.939662,70.5701931 292.192277,69.1623089 C294.21963,67.9796862 296.922767,67.2475865 301.371681,66.6281175 L307.34111,65.8960177 L307.34111,65.1639179 C307.34111,60.9402655 305.707965,59.1381738 302.103781,59.1381738 C298.781175,59.1381738 296.810137,60.8839501 296.584875,64.093926 L289.658085,64.093926 C290.108608,58.0681818 294.839099,54.3513677 302.103781,54.3513677 C310.438455,54.3513677 314.15527,57.8992357 314.15527,66.0649638 L314.15527,74.4559533 C314.15527,78.2853982 314.436846,81.2137973 315,83.1848351 L308.242156,83.1848351 C308.016895,81.7769509 307.847949,80.0874899 307.791633,78.3417136 C306.440064,81.7769509 302.892196,83.8606195 298.330652,83.8606195 Z M300.526951,79.0738134 C304.694288,79.0738134 307.510056,76.1454143 307.510056,71.640185 L307.510056,69.8380933 L301.14642,70.7954545 C297.429606,71.4149236 295.740145,72.7664924 295.740145,75.1880531 C295.740145,77.5532985 297.542237,79.0738134 300.526951,79.0738134 Z M202.144006,79.0738134 C206.311344,79.0738134 209.127112,76.1454143 209.127112,71.640185 L209.127112,69.8380933 L202.763475,70.7954545 C199.046661,71.4149236 197.3572,72.7664924 197.3572,75.1880531 C197.3572,77.5532985 199.159292,79.0738134 202.144006,79.0738134 Z M159.738536,77.4969831 L166.552695,77.4969831 C174.324216,77.4969831 178.660499,70.9644006 178.660499,63.023934 C178.660499,54.9145213 174.493162,48.8887772 166.665326,48.8887772 L159.738536,48.8887772 L159.738536,77.4969831 Z" id="_datica-logo-deep" fill="#010101"></path>
    </g>
</svg>

<svg xmlns="http://www.w3.org/2000/svg" role="img" viewBox="-6.30 -6.30 327.34 139.59"><title>Datica logo</title><g fill="none" fill-rule="evenodd"><path fill="#010101" d="M.598 51.158l8.179-9.138L37.3 76.037.598 51.158zM8.777 96.38V84.04l43.883 6.137L8.777 96.38zm36.303 28.014l-8.245-9.138 36.702-24.879-28.457 34.017zm45.612-3.469l-12.234-1.267 10.704-43.154 1.53 44.421zM122.34 87.71l-9.974 7.204-20.81-39.22L122.34 87.71zm1.33-45.955l-2.594 12.072L79.455 38.62l44.216 3.135zM94.016 6.737l6.117 10.738-41.09 16.608L94.016 6.737zM48.604.667l11.702 3.802-19.415 39.953L48.604.667zM10.77 26.547l11.237-5.003 12.234 42.754-23.47-37.752zM0 71.234l4.987-11.273L42.62 83.507 0 71.235zm21.742 40.42l-3.79-11.74 43.617-7.737-39.827 19.476zm43.152 15.407l-10.705-6.137 27.327-35.083-16.622 41.22zm42.354-17.476l-12.035 2.602-3.125-44.355 15.16 41.753zm19.814-41.42l-7.248 10.005L87.9 47.29l39.163 20.876zm-12.9-44.021l1.264 12.273-44.282-1.534 43.019-10.739zM75.2 0l9.109 8.27-33.91 28.615L75.2 0zM30.12 8.27h12.3l-6.183 44.022L30.12 8.271zm122.354 74.915V43.2h14.417c11.713 0 19.372 7.997 19.372 19.823s-7.603 20.16-19.485 20.16h-14.304zm47.474.676c-5.744 0-9.574-3.323-9.574-8.335 0-2.703 1.183-4.956 3.435-6.364 2.028-1.182 4.73-1.914 9.18-2.534l5.97-.732v-.732c0-4.224-1.634-6.026-5.238-6.026-3.323 0-5.294 1.746-5.52 4.956h-6.926c.45-6.026 5.181-9.743 12.446-9.743 8.335 0 12.051 3.548 12.051 11.714v8.391c0 3.83.282 6.758.845 8.729h-6.758a39.468 39.468 0 0 1-.45-4.843c-1.352 3.435-4.9 5.519-9.461 5.519zm20.273-23.934v-4.9h5.069v-7.096l6.757-2.703v9.8h6.87v4.899h-6.87v13.459c0 3.041 1.296 4.449 4.111 4.449 1.127 0 1.859-.113 2.76-.338v5.688c-1.633.338-2.872.507-4.618.507-6.758 0-9.01-3.548-9.01-9.236v-14.53h-5.069zm24.554-9.574v-7.04h7.32v7.04h-7.32zm.338 32.832V55.027h6.757v28.158h-6.757zm27.144.676c-8.391 0-13.798-5.8-13.798-14.755 0-9.18 5.294-14.755 13.854-14.755 6.983 0 11.545 3.717 12.39 10.137l-6.59 1.07c-.45-3.83-2.646-5.913-5.969-5.913-4.167 0-6.758 3.492-6.758 9.292 0 6.082 2.534 9.574 6.87 9.574 3.38 0 5.463-2.084 6.083-6.026l6.363 1.295c-1.013 6.251-5.744 10.08-12.445 10.08zm26.074 0c-5.745 0-9.574-3.323-9.574-8.335 0-2.703 1.183-4.956 3.435-6.364 2.028-1.182 4.73-1.914 9.18-2.534l5.97-.732v-.732c0-4.224-1.634-6.026-5.238-6.026-3.323 0-5.294 1.746-5.52 4.956h-6.926c.45-6.026 5.181-9.743 12.446-9.743 8.334 0 12.051 3.548 12.051 11.714v8.391c0 3.83.282 6.758.845 8.729h-6.758a39.468 39.468 0 0 1-.45-4.843c-1.352 3.435-4.9 5.519-9.461 5.519zm2.196-4.787c4.167 0 6.983-2.929 6.983-7.434v-1.802l-6.364.957c-3.716.62-5.406 1.971-5.406 4.393 0 2.365 1.802 3.886 4.787 3.886zm-98.383 0c4.167 0 6.983-2.929 6.983-7.434v-1.802l-6.364.957c-3.716.62-5.406 1.971-5.406 4.393 0 2.365 1.802 3.886 4.787 3.886zm-42.405-1.577h6.814c7.771 0 12.107-6.533 12.107-14.473 0-8.11-4.167-14.135-11.995-14.135h-6.926v28.608z"/></g></svg>
